X: 43453
T: Ye Banks And Braes
R: waltz
M: 3/4
K: Cmajor
G2|c4 c2|d2 c2 d2|e2 g2 e2|d2 c2 d2|
e3 d c2|c2 A2 G2|G2 A2 c2|d4 e2|
c4 c2|d2 c2 d2|e2 g2 e2|d2 c2 d2|
e3 d c2|c2 A2 G2|G2 A2 c2|c4 e2|
g4 a2|g2 e2 c2|g4 a2|g2 e2 c2|
g2 e2 c2|g4 g2|a3 gfe|d4 e2|
c4 c2|d2 c2 d2|e2 g2 e2|d2 c2 d2|
e3 d c2|c2 A2 G2|G2 A2 c2|c4 z2||

